X: 9487
T: Dark Girl Dressed In Blue
R: polka
M: 2/4
K: Dmajor
FA Ad|Bd AF|GB AF/A/|BE G/F/E/D/|
FA Ad|B/c/d/B/ A/B/A/F/|GB A/B/A/G/|FD DD/:|
|:FA A/B/d/e/|f/e/f/d/ ed|Bd/B/ A/D/F/A/|BE G/F/E/D/|
FA A/B/d/e/|f/e/f/d/ ed|Bd/B/ A/B/A/G/|FD DD/:|

